apps/symbolic/gnome-weather-symbolic.svg

<svg xmlns="http://www.w3.org/2000/svg" viewBox="0 0 24 24">
  <path fill="#bebebe" d="M6.6 6.6l.621.054A4.949 4.949 0 0 1 12 3a4.95 4.95 0 0 1 4.95 4.95l-.072.855c.414-.261.9-.405 1.422-.405a2.7 2.7 0 0 1 2.7 2.7 2.7 2.7 0 0 1-2.7 2.7H6.6A3.6 3.6 0 0 1 3 10.2a3.6 3.6 0 0 1 3.6-3.6m0 1.8a1.8 1.8 0 0 0-1.8 1.8A1.8 1.8 0 0 0 6.6 12h11.7a.9.9 0 0 0 .9-.9.9.9 0 0 0-.9-.9h-3.15V7.95A3.15 3.15 0 0 0 12 4.8a3.15 3.15 0 0 0-3.15 3.15v.45H6.6m10.8 9H4.8a.9.9 0 0 1-.9-.9.9.9 0 0 1 .9-.9h12.6a2.7 2.7 0 0 1 2.7 2.7 2.7 2.7 0 0 1-2.7 2.7 2.694 2.694 0 0 1-1.908-.792.913.913 0 0 1 0-1.269.896.896 0 0 1 1.269 0 .897.897 0 0 0 .639.261.9.9 0 0 0 .9-.9.9.9 0 0 0-.9-.9z"/>
</svg>

<?xml version="1.0" encoding="UTF-8" standalone="no"?>
<svg
   xmlns:dc="http://purl.org/dc/elements/1.1/"
   xmlns:cc="http://creativecommons.org/ns#"
   xmlns:rdf="http://www.w3.org/1999/02/22-rdf-syntax-ns#"
   xmlns:svg="http://www.w3.org/2000/svg"
   xmlns="http://www.w3.org/2000/svg"
   xmlns:sodipodi="http://sodipodi.sourceforge.net/DTD/sodipodi-0.dtd"
   xmlns:inkscape="http://www.inkscape.org/namespaces/inkscape"
   version="1.1"
   width="24"
   height="24"
   viewBox="0 0 24 24"
   id="svg2"
   inkscape:version="0.92.1 r15371"
   sodipodi:docname="gnome-weather-symbolic.svg">
  <metadata
     id="metadata10">
    <rdf:RDF>
      <cc:Work
         rdf:about="">
        <dc:format>image/svg+xml</dc:format>
        <dc:type
           rdf:resource="http://purl.org/dc/dcmitype/StillImage" />
      </cc:Work>
    </rdf:RDF>
  </metadata>
  <defs
     id="defs8" />
  <sodipodi:namedview
     pagecolor="#ffffff"
     bordercolor="#666666"
     borderopacity="1"
     objecttolerance="10"
     gridtolerance="10"
     guidetolerance="10"
     inkscape:pageopacity="0"
     inkscape:pageshadow="2"
     inkscape:window-width="640"
     inkscape:window-height="480"
     id="namedview6"
     showgrid="false"
     inkscape:zoom="25.291667"
     inkscape:cx="4.9621087"
     inkscape:cy="12"
     inkscape:current-layer="svg2" />
  <path
     d="M 6.6,6.6 7.221,6.654 C 7.788,4.548 9.714,3 12,3 a 4.95,4.95 0 0 1 4.95,4.95 L 16.878,8.805 C 17.292,8.544 17.778,8.4 18.3,8.4 a 2.7,2.7 0 0 1 2.7,2.7 2.7,2.7 0 0 1 -2.7,2.7 H 6.6 A 3.6,3.6 0 0 1 3,10.2 3.6,3.6 0 0 1 6.6,6.6 m 0,1.8 A 1.8,1.8 0 0 0 4.8,10.2 1.8,1.8 0 0 0 6.6,12 h 11.7 a 0.9,0.9 0 0 0 0.9,-0.9 0.9,0.9 0 0 0 -0.9,-0.9 H 15.15 V 7.95 A 3.15,3.15 0 0 0 12,4.8 3.15,3.15 0 0 0 8.85,7.95 V 8.4 H 6.6 m 10.8,9 H 4.8 A 0.9,0.9 0 0 1 3.9,16.5 0.9,0.9 0 0 1 4.8,15.6 h 12.6 a 2.7,2.7 0 0 1 2.7,2.7 2.7,2.7 0 0 1 -2.7,2.7 c -0.747,0 -1.422,-0.306 -1.908,-0.792 -0.342,-0.351 -0.342,-0.918 0,-1.269 0.351,-0.351 0.918,-0.351 1.269,0 0.162,0.162 0.387,0.261 0.639,0.261 a 0.9,0.9 0 0 0 0.9,-0.9 0.9,0.9 0 0 0 -0.9,-0.9 z"
     id="path4"
     style="fill:#bebebe;fill-opacity:1;stroke-width:0.89999998"
     inkscape:connector-curvature="0" />
</svg>
